icons/store-3-line.svg

<svg xmlns="http://www.w3.org/2000/svg" width="24" height="24" fill="none"><g clip-path="url(#a)"><g><path fill="#121212" d="M21 13V20C21 20.2652 20.8946 20.5196 20.7071 20.7071C20.5196 20.8946 20.2652 21 20 21H4C3.73478 21 3.48043 20.8946 3.29289 20.7071C3.10536 20.5196 3 20.2652 3 20V13H2V11L3 6H21L22 11V13H21ZM5 13V19H19V13H5ZM4.04 11H19.96L19.36 8H4.64L4.04 11ZM6 14H14V17H6V14ZM3 3H21V5H3V3Z"/></g></g><defs><clipPath id="a"><rect width="24" height="24" fill="white"/></clipPath></defs></svg>

<svg width="24" height="24" fill="none" xmlns="http://www.w3.org/2000/svg"><g clip-path="url(#a)"><path d="M21 13v7a1 1 0 0 1-1 1H4a1 1 0 0 1-1-1v-7H2v-2l1-5h18l1 5v2h-1ZM5 13v6h14v-6H5Zm-.96-2h15.92l-.6-3H4.64l-.6 3ZM6 14h8v3H6v-3ZM3 3h18v2H3V3Z" /></g><defs><clipPath id="a"><path fill="#fff" d="M0 0h24v24H0z"/></clipPath></defs></svg>
